X:294
T: ES IST EIN SCHNITTER DER HEISST TOD
N: B0772
O: Europa, Mitteleuropa, Deutschland
R: Trost - Lied, Tod, religioes
M: 4/4
L: 1/8
K: G
D | G2G2F2F2 | E2E2D3
D | G3GF2G2 | A2A2B2z
B | B2AGA2DD | B2AGA2D
D | B2ABc2AA | A2GAB2Gz |
d3BG2G2 | A2A2B4 |
d2gdB2d2 | c2A2G2z

@@@ Tune index: 2512
